X: 15
T:Jag vet en dejlig rosa
M:2/4
L:1/8
Q:144
C:anon.
O:Sweden
Z:Transcribed by Frank Nordberg - http://www.musicaviva.com
K:Em
F|"Em"GB "B7"FA|"Em"(G>F) "Am"EF|"Em"GE "B"F^D|"Em"E2 z :
B|"E7"B^G AB|
w:Jag vet en dej- lig ro-[ext] sa och vit som lil- je- blad. Dess st\"am
- ma ger en
w:N\"ar Jag p\aa hen- ne t\"an-[ext] kar, så g\"ors mitt hj\"ar- ta glad
.
"Am"c>B AA|"D"DF GA|"B7"B>A "Em"GF|"Am"EG "B7"^DF|
"Em"E3|]
w:hj\"ar- tans tr\"ost lik n\"ak- ter- ga- lens bli- da r\"ost, s\aa fa-
 ger och s\aa ljuv.
w:Som solen fager skiner, \"ar hon som purpur klar,
W:Gud l\aat dig aldrig s\"orja men alltid vara glad!
W:M\aa de f\aa komma samman
W:med hj\"artans fr\"ojd och gamman
W:som l\"angta til varann'.
w:Var dag g\aar solen neder och dagelig uppg\aar.
W:N\"ar kommer dagen blider, att jag din sk\aada f\aar?
W:I h\aagon \"ar du st\"ads mig n\"ar,
W:Farv\"al, farv\"al min hj\"artlig k\"ar!
W:M\aang tusende god natt!
W:
W: From "Falaleiro" http://home.t-online.de/home/pheld/homepage.htm

